img/strapp-logo.svg

<svg xmlns="http://www.w3.org/2000/svg" width="154" height="37" viewBox="0 0 154 37"><g fill="#0A0A0A" fill-rule="evenodd"><path d="M18.3906,11.3364 C17.4386,8.2704 15.9066,6.9494 13.4216,6.9494 C11.2546,6.9494 9.7216,8.2704 9.7216,10.1734 C9.7216,12.1824 10.7256,12.9754 15.8006,14.8784 C19.2366,16.1994 20.5046,16.8334 22.0366,18.1024 C24.3106,19.9524 25.5266,22.5424 25.5266,25.7134 C25.5266,32.4804 20.5046,36.9724 13.0516,36.9724 C6.5496,36.9724 2.5856,33.8544 0.7876,27.2994 L7.5546,25.3974 C8.5586,29.0964 10.2496,30.6824 13.2096,30.6824 C15.9066,30.6824 17.7036,29.1494 17.7036,26.8764 C17.7036,24.8684 16.4876,23.7574 12.8396,22.4364 C8.4006,20.8514 7.2376,20.2694 5.4936,18.8424 C3.3786,16.9924 2.2156,14.4554 2.2156,11.4424 C2.2156,4.9934 6.7086,0.6594 13.5276,0.6594 C16.6456,0.6594 19.3416,1.5044 21.3506,3.1434 C23.0416,4.4644 23.8876,5.8924 24.8386,8.8524 L18.3906,11.3364 Z"/><polygon points="48.478 1.188 48.478 7.795 41.291 7.795 41.291 36.444 33.52 36.444 33.52 7.795 26.489 7.795 26.489 1.188"/><path d="M58.5869 16.8335L61.9699 16.8335C64.9299 16.8335 66.5159 15.0365 66.5159 11.7065 66.5159 10.0145 65.9869 8.5875 64.9829 7.7425 64.2959 7.1605 63.3449 6.8965 61.6529 6.8965L58.5869 6.8965 58.5869 16.8335zM61.9169 1.1875C66.6749 1.1875 68.2069 1.5575 70.2689 3.0385 72.6999 4.8875 74.0739 8.0065 74.0739 11.8655 74.0739 16.3575 72.6479 18.9485 69.1059 21.0625L75.6079 36.4435 67.1499 36.4435 62.4459 22.5425 58.5869 22.5425 58.5869 36.4435 50.8699 36.4435 50.8699 1.1875 61.9169 1.1875zM113.085 17.3623L115.463 17.3623C119.058 17.3623 120.432 15.8823 120.432 12.0243 120.432 10.2263 119.903 8.6943 119.005 7.8473 118.265 7.1083 117.366 6.8963 115.463 6.8963L113.085 6.8963 113.085 17.3623zM115.463 1.1873C120.538 1.1873 122.546 1.5573 124.502 2.9323 127.145 4.7293 128.625 8.1123 128.625 12.2353 128.625 16.5163 127.145 19.8993 124.607 21.5913 122.546 22.9653 120.379 23.4413 115.833 23.4413L113.085 23.4413 113.085 36.4443 105.367 36.4443 105.367 1.1873 115.463 1.1873zM138.2715 17.3623L140.6495 17.3623C144.2445 17.3623 145.6185 15.8823 145.6185 12.0243 145.6185 10.2263 145.0895 8.6943 144.1915 7.8473 143.4515 7.1083 142.5525 6.8963 140.6495 6.8963L138.2715 6.8963 138.2715 17.3623zM140.6495 1.1873C145.7245 1.1873 147.7325 1.5573 149.6885 2.9323 152.3315 4.7293 153.8115 8.1123 153.8115 12.2353 153.8115 16.5163 152.3315 19.8993 149.7935 21.5913 147.7325 22.9653 145.5655 23.4413 141.0195 23.4413L138.2715 23.4413 138.2715 36.4443 130.5535 36.4443 130.5535 1.1873 140.6495 1.1873zM88.8506 29.1899L92.2866 14.8129 85.3096 14.8129 88.8506 29.1899zM84.1996 36.7489L74.1566 1.4919 82.0846 1.4919 83.8296 8.7339 93.7666 8.7339 95.4576 1.4919 103.2536 1.4919 92.6826 36.7489 84.1996 36.7489z"/></g></svg>

<svg height="37" viewBox="0 0 154 37" width="154" xmlns="http://www.w3.org/2000/svg"><g fill="#0a0a0a" fill-rule="evenodd"><path d="m18.3906 11.3364c-.952-3.066-2.484-4.387-4.969-4.387-2.167 0-3.7 1.321-3.7 3.224 0 2.009 1.004 2.802 6.079 4.705 3.436 1.321 4.704 1.955 6.236 3.224 2.274 1.85 3.49 4.44 3.49 7.611 0 6.767-5.022 11.259-12.475 11.259-6.502 0-10.466-3.118-12.264-9.673l6.767-1.902c1.004 3.699 2.695 5.285 5.655 5.285 2.697 0 4.494-1.533 4.494-3.806 0-2.008-1.216-3.119-4.864-4.44-4.439-1.585-5.602-2.167-7.346-3.594-2.115-1.85-3.278-4.387-3.278-7.4 0-6.449 4.493-10.783 11.312-10.783 3.118 0 5.814.845 7.823 2.484 1.691 1.321 2.537 2.749 3.488 5.709z"/><path d="m48.478 1.188v6.607h-7.187v28.649h-7.771v-28.649h-7.031v-6.607z"/><path d="m58.5869 16.8335h3.383c2.96 0 4.546-1.797 4.546-5.127 0-1.692-.529-3.119-1.533-3.964-.687-.582-1.638-.846-3.33-.846h-3.066zm3.33-15.646c4.758 0 6.29.37 8.352 1.851 2.431 1.849 3.805 4.968 3.805 8.827 0 4.492-1.426 7.083-4.968 9.197l6.502 15.381h-8.458l-4.704-13.901h-3.859v13.901h-7.717v-35.256zm51.1681 16.1748h2.378c3.595 0 4.969-1.48 4.969-5.338 0-1.798-.529-3.33-1.427-4.177-.74-.739-1.639-.951-3.542-.951h-2.378zm2.378-16.175c5.075 0 7.083.37 9.039 1.745 2.643 1.797 4.123 5.18 4.123 9.303 0 4.281-1.48 7.664-4.018 9.356-2.061 1.374-4.228 1.85-8.774 1.85h-2.748v13.003h-7.718v-35.257zm22.8085 16.175h2.378c3.595 0 4.969-1.48 4.969-5.338 0-1.798-.529-3.33-1.427-4.177-.74-.739-1.639-.951-3.542-.951h-2.378zm2.378-16.175c5.075 0 7.083.37 9.039 1.745 2.643 1.797 4.123 5.18 4.123 9.303 0 4.281-1.48 7.664-4.018 9.356-2.061 1.374-4.228 1.85-8.774 1.85h-2.748v13.003h-7.718v-35.257zm-51.7989 28.0026 3.436-14.377h-6.977zm-4.651 7.559-10.043-35.257h7.928l1.745 7.242h9.937l1.691-7.242h7.796l-10.571 35.257z"/></g></svg>
